X: 19793
T: Jer O'Connell's
R: polka
M: 2/4
K: Gmajor
|:dG Bc|d2 d>e|f/e/d dc|AB c/B/A|
dG Bc|d2 e>d|f/e/d cA|AG G2:|
|:dg ga|b2 a>g|f/e/d de|fg af/e/|
dg ga|b2 a>g|f/e/d cA|AG G2:|

